X:113
T:I'm ninety five - Woodrich
%%VWML:SBG-1-2-601-0
F:http://www.vwml.org/record/SBG/1/2/601
Z:Original Sibelius transcriptions by M. & S. Graebe
M:6/8
I:linebreak $
K:C
V:1 treble nm="P1"
V:1
 G | G2 F E>DE | G2 E E3 | C2 A c2 A | G2 E E>DE | F2 D D3 | E2 C [CE]3 |$ C2 A G2 F | %8
 E2 C [CE]2 G | G2 F EFG | A2 B c2 d | e2 d cBA | G2 F E2 G |$ A2 A A2 F | G2 G G3 | CEG cBA | %16
 G2 E E2 G | G2 E E2 E | G2 E E2 C | CEG cBA | G2 E E3 |$ F2 D D | E2 C [CE]3 | D2 A G2 =F | %24
 E2 C [CE]3 | E>EE E>DE | G2 E E3 | CEG c>BA |$ GEE E3 | F2 D D>CD | E2 C C3 | A,2 A G2 F | %32
 E2 C [CE]3 | ded c2 A | F2 E2 x2 | %35

